X:1
T:O Mistress Mine
T:O Mistress Mine
T:Copyright © CPDL
T:Copyright © CPDL
T:Copyright © CPDL
T:Copyright © CPDL
T:Copyright © CPDL
Z:Copyright © CPDL
%%score 1 2 3
L:1/8
Q:1/4=65
M:2/4
K:F
V:1 treble nm="P1"
V:2 treble nm="P2"
V:3 bass nm="P3"
V:1
"^Editor: John Henry Fowler""^(  Revision:   4 - 18 - 2008  )""^Allegretto." z2 | %1
w: |
"^From William Shakespeare's \"Twelth Night\".""^From \"English Lyrics\" -  Set 2 -  Number 1" z4 | %2
w: |
"^Charles Hubert Hastings Parry""^( 1848 - 1918 )" z4 | z4 | z4 | z4 | z!p! A cA | G2 !>!BA/G/ | %8
w: ||||O Mis- tress|mine, where are you|
 Ac z2 |!mf! z!<(! c!<)!!>(! f!>)!d | B z/!p! A/ BG | Ac z!<(! c/>!<)!d/ | eG A>c | E4 | %14
w: roam- ing~?|O stay and|hear~! Your true love's|com- ing. That can|sing both high and|low;|
 z2!p! E>^F | G"^cresc."D!<(! _E!<)!!<(!G | (B/A/)!<)! B2 z | z2"^cresc." E>!<)!!<(!F | BB cF | %19
w: Trip no|fur- ther pret- ty|sweet- * ing,|Jour- neys|end in lov- er's|
 _ed!f! fd | BA G>F | F4 | z4 | z4 | z4 | z4 | z4 | z4 | z2!p! AF ||[M:3/4] E2 z G F>E | %30
w: meet- ing Eve- ry|wise man's son doth|know.|||||||What is|love~? 'Tis not here-|
 F A2 z"^cresc."!<(! dB!<)! | G3"^cresc."!<(! B A!<)!G | A c2!mf! z!<(! c>!<)!d | _e3 c AF | %34
w: af- ter; Pre- sent|mirth hath pre- sent|laugh- ter; What's to|come is still un-|
 d4!f! f>=e |!f! f3 d =Bc | d2 G2 z2 | z6 | z2!p!!<(! A2!<)! c2 ||[M:2/4] f3 c | %40
w: sure: In de~\-|lay there lies no|plen- ty,||Then come|kiss me|
!<(! !>!e>d d!<)!G |!<(! g4-!<)! | g>!f!d (c/=B/) (A/G/) | c3 E | F4 | z4 | z4 | z4 | z4 |] %49
w: Sweet and twen- ty.|Youth's|_ a stuff _ will _|not en-|dure.|||||
V:2
 (([Ac]/f/)!<(!([cf]/a/)!<)! |!<(! ([A=B]/f/)!<)!([Bf]/a/)!<(! ([^GB]/e/)!<)!([Be]/^g/) | %2
 ([^G=B]/e/)([Be]/^g/)) (([=GA]/e/)([Ae]/g/) | ([FA]/!>(!d/)([Ad]/f/))!>)! (([DG]/_B/)([GB]/d/) | %4
 ([DG]/B/)([GB]/d/) ([EG]/B/)([GB]/e/)) |"^a tempo" z2 ([A,C]/F/)([CF]/A/) | %6
 ([A,C]/F/)([CF]/A/) ([A,C]/F/)([CF]/A/) | ([B,D]/G/)([DG]/B/) ([B,E]/G/)([EG]/c/) | %8
 ([CF]/A/)([FA]/c/) ([CF]/A/)([FA]/c/) | ([A,F]/A/)([CA]/c/) ([DF]/A/)([FA]/d/) | %10
 ([DG]/B/)([GB]/d/) ([EG]/B/)([GB]/e/) | ([FA]/c/)([Ac]/f/) ([CF]/!<(!A/)([FA]/!<)!c/) | %12
 (C/G/)([CG]/c/) (C/A/)([CA]/c/) | ([CE]/A/)([EA]/c/) ([CE]/A/)([EA]/c/) | %14
 ([CE]/A/)([EA]/c/) (C/E/)([CE]/A/) | (D/G/)!<(!([DG]/B/) (_E/!<)!G/)([EG]/c/) | %16
 (E/G/)([DG]/B/) (E/G/)([DG]/B/) | (D/G/)([DG]/B/)!<(! (=E/G/)([EG]/!<)!B/) | %18
 (B,/!<(!F/)([B,F]/!<)!B/) (C/F/)([CF]/c/) | ([CF]/c/)([DF]/d/) [df][Bd] | %20
 !>![DEB][CFA] [G,EG]>[A,F] | [A,F]2 z2 | z2 (([Ac]/f/)([cf]/a/) | %23
 ([A=B]/f/)([Bf]/a/) ([^GB]/e/)([Be]/^g/) | ([^G=B]/e/)([Be]/^g/)) (([=GA]/e/)([Ae]/g/) | %25
 ([FA]/d/)([Ad]/!<(!f/) ([DG]/B/)([GB]/!<)!d/) | ([DG]/B/)([GB]/d/)) (([EG]/B/)([GB]/e/)) | %27
 z2 ([A,D]/F/)([DF]/A/) | ([A,D]/F/)([DF]/A/) ([A,D]/F/)([DF]/A/) || %29
[M:3/4] (([B,D]/E/)([DE]/B/) .[B,DEB]2) .[A,^CA]2 | (([A,D]/F/)([DF]/A/)!<(! [A,DA]2)!<)! [DFd]2 | %31
 ((F/G/)([FG]/c/) [EGc]2) [Ec]2 | (C/F/)([CF]/c/) [CFc]2 ((C/F/)([CF]/c/)) | %33
 (_E/B/)([EB]/_e/) (F/A/)([FA]/e/) (F/c/)([Fc]/e/) | (D/F/)([DF]/d/) [DFd]2 z2 | %35
 ((F/G/)([FG]/f/) [EFf]2) f>e | (!>!f3 d =Bc) |!<(! (d=BG!<)!_A) z2 | z2!<(! [CF=A]2!<)! [CEc]2 || %39
[M:2/4] [Fcf]2 z2 | [FGdf]2 z2 | z G [=B,FG=B][CFGc] | (!>![EFe][Dd]) z [=B,FG] | %43
 [CFc]2 [G,_B,E]2 | [F,A,F]4 | z2 (([Ac]/f/)([cf]/a/) | ([A=B]/f/)([Bf]/a/) ([^GB]/e/)([Be]/^g/)) | %47
 z3/2 [E=Gce]/ z2 | z3/2 ([Fcf]/ z2) |] %49
V:3
!p! (F/C/)"^cresc."!<(!(C/F,/)!<)! |!<(! (F/=B,/)!<)!(B,/D,/)!<(! (E/B,/)!<)!(B,/E,/) | %2
 (E/=B,/)(B,/E,/) (^C/E,/)(E,/A,,/) | (D/!>(!A,/)"^dim."(A,/D,/)!>)! (B,/D,/)(D,/G,,/) | %4
 (B,/"^poco rit."D,/)(D,/G,,/) (B,/C,/)(C,/C,,/) | z2!p! (F,/C,/)(C,/F,,/) | %6
 (F,/C,/)(C,/F,,/) (F,/C,/)(C,/F,,/) | (G,/D,/)(D,/F,,/) (G,/C,/)(C,/F,,/) | %8
 (A,/C,/)(C,/F,,/) (A,/C,/)(C,/F,,/) |!mf! (A,/C,/)(C,/F,,/) (A,/D,/)(D,/F,,/) | %10
 (B,/D,/)(D,/F,,/)!p! (B,/C,/)(C,/F,,/) | (A,/C,/)(C,/F,,/) (A,/"^cresc."!<(!C,/)(C,/!<)!F,,/) | %12
 (G,/C,/)(C,/E,,/) (A,/C,/)(C,/F,,/) | (A,/E,/)(E,/A,,/) (A,/E,/)(E,/A,,/) | %14
 (A,/E,/)(E,/!p!A,,/) (A,/C,/)(C,/A,,/) | (B,/D,/)"^cresc."(D,/!<(!G,,/) (C/G,/)!<)!(G,/C,/) | %16
 (B,/D,/)(D,/G,,/) (B,/D,/)(D,/G,,/) | (B,/D,/)(D,/"^cresc."G,,/) (B,/!<(!C,/)(C,/G,,/)!<)! | %18
"^cresc." (F,/!<(!D,/)(D,/F,,/)!<)! (A,/C,/)(C,/F,,/) | ([F,A,]/B,,/)([F,B,]/!f!B,,/) [DF][B,D] | %20
 [G,,,G,,][A,,,A,,]/[B,,,B,,]/ [C,,C,]>[F,,,F,,] | [F,,,F,,]2 z2 | z2!p! (F/C/)(C/F,/) | %23
 (F/=B,/)(B,/D,/) (E/B,/)(B,/E,/) | (E/=B,/)(B,/E,/) (^C/E,/)(E,/A,,/) | %25
 (D/A,/)"^cresc."(A,/!<(!D,/) (B,/D,/)(D,/!<)!G,,/) | (B,/D,/)(D,/G,,/) (B,/G,/)(G,/C,/) | %27
 z2!p! (F,/D,/)(D,/F,,/) | (F,/D,/)(D,/F,,/) (F,/D,/)(D,/F,,/) || %29
[M:3/4] ((G,/!>(!E,/)(E,/G,,/)!>)! [G,,G,B,]2) [G,,G,]2 | %30
 ((F,/!>(!A,,/)(A,,/D,,/)!>)!!<(! [D,,A,,F,]2)!<)!"^cresc."!<(! [B,,B,]2 | %31
 ((C/!>(!G,/)!<)!(G,/C,/)!>)! [C,G,C]2) [C,B,]2 | %32
 (A,/!>(!C,/)(C,/F,,/)!>)! !arpeggio![F,,C,B,]2!mf!!<(! (A,/C,/)(C,/!<)!F,,/) | %33
 (A,/!>(!_E,/)(E,/G,,/)!>)! (C/F,/)(F,/A,,/) (A,/C,/)(C,/F,,/) | %34
 (A,/F,/)(F,/B,,/) !arpeggio![B,,F,B,]2 z2 |!f! ((D/!>(!G,/)(G,/=B,,/)!>)! [B,,G,D]2) F>E | %36
 (!>!F3 D =B,C) |!<(! (D=B,G,!<)!_A,) z2 | z2!p!!<(! [C,A,]2!<)! [B,,G,]2 ||[M:2/4] [A,,F,C]2 z2 | %40
 [B,,F,D]2 z2 | z!mf! G,!<(! [D,G,]!<)![C,G,] | !>![^A,,G,]=B,, z [D,G,] | %43
!>(! [C,A,]2 [C,,C,]2!>)! | [F,,,F,,]4 | z2!p! (F/C/)(C/F,/) | %46
!<(! (F/=B,/)(B,/D,/) (E/B,/)(B,/!<)!E,/) | z3/2 [=C,_B,]/[K:treble] c'2 | %48
 z3/2 [F,,C,A,]/[K:treble] f'2 |] %49

